ox-hugo/E8OU1y.svg

<?xml version="1.0" encoding="UTF-8" standalone="no"?>
<svg
   width="173.90739pt"
   height="85.4375pt"
   viewBox="0 0 173.90739 85.437496"
   version="1.1"
   id="svg25"
   xmlns="http://www.w3.org/2000/svg"
   xmlns:svg="http://www.w3.org/2000/svg">
  <defs
     id="defs11">
    <clipPath
       id="clip-0">
      <path
         clip-rule="nonzero"
         d="M 0,0 H 148 V 85.4375 H 0 Z m 0,0"
         id="path2" />
    </clipPath>
    <clipPath
       id="clip-1">
      <path
         clip-rule="nonzero"
         d="m 145,82 h 29.19531 v 2 H 145 Z m 0,0"
         id="path5" />
    </clipPath>
    <clipPath
       id="clip-2">
      <path
         clip-rule="nonzero"
         d="m 145,80 h 4 v 5.4375 h -4 z m 0,0"
         id="path8" />
    </clipPath>
  </defs>
  <g
     clip-path="url(#clip-0)"
     id="g15"
     transform="translate(-0.08869649)">
    <path
       fill="none"
       stroke-width="0.3985"
       stroke-linecap="butt"
       stroke-linejoin="miter"
       stroke="#000000"
       stroke-opacity="1"
       stroke-miterlimit="10"
       d="M 2.1875e-4,7.1875e-4 85.039281,56.692125 141.73459,7.1875e-4 V 85.039781 h -28.34765"
       transform="matrix(1,0,0,-1,0.199,85.239)"
       id="path13" />
  </g>
  <g
     clip-path="url(#clip-1)"
     id="g19"
     transform="translate(-0.08869649)">
    <path
       fill="none"
       stroke-width="0.3985"
       stroke-linecap="butt"
       stroke-linejoin="miter"
       stroke="#000000"
       stroke-opacity="1"
       stroke-miterlimit="10"
       d="M -56.693906,3.4375e-4 H -84.643125"
       transform="matrix(1,0,0,-1,230.69,82.848)"
       id="path17" />
  </g>
  <g
     clip-path="url(#clip-2)"
     id="g23"
     transform="translate(-0.08869649)">
    <path
       fill="none"
       stroke-width="0.3985"
       stroke-linecap="round"
       stroke-linejoin="round"
       stroke="#000000"
       stroke-opacity="1"
       stroke-miterlimit="10"
       d="M -2.073045,2.390281 C -1.694139,0.956688 -0.850389,0.277 0.00117375,-3.4375e-4 -0.850389,-0.277687 -1.694139,-0.957375 -2.073045,-2.390969"
       transform="matrix(-1,0,0,1,145.84883,82.848)"
       id="path21" />
  </g>
</svg>

<?xml version="1.0" encoding="UTF-8" standalone="no"?>
<svg
   width="174.197pt"
   height="85.438pt"
   viewBox="0 0 174.197 85.438"
   version="1.1"
   id="svg25"
   xmlns="http://www.w3.org/2000/svg"
   xmlns:svg="http://www.w3.org/2000/svg">
  <defs
     id="defs11">
    <clipPath
       id="clip-0">
      <path
         clip-rule="nonzero"
         d="M 0 0 L 148 0 L 148 85.4375 L 0 85.4375 Z M 0 0 "
         id="path2" />
    </clipPath>
    <clipPath
       id="clip-1">
      <path
         clip-rule="nonzero"
         d="M 145 82 L 174.195312 82 L 174.195312 84 L 145 84 Z M 145 82 "
         id="path5" />
    </clipPath>
    <clipPath
       id="clip-2">
      <path
         clip-rule="nonzero"
         d="M 145 80 L 149 80 L 149 85.4375 L 145 85.4375 Z M 145 80 "
         id="path8" />
    </clipPath>
  </defs>
  <g
     clip-path="url(#clip-0)"
     id="g15">
    <path
       fill="none"
       stroke-width="0.3985"
       stroke-linecap="butt"
       stroke-linejoin="miter"
       stroke="#000000"
       stroke-opacity="1"
       stroke-miterlimit="10"
       d="M 2.1875e-4,7.1875e-4 85.039281,56.692125 141.73459,7.1875e-4 V 85.039781 h -28.34765"
       transform="matrix(1,0,0,-1,0.199,85.239)"
       id="path13" />
  </g>
  <g
     clip-path="url(#clip-1)"
     id="g19">
    <path
       fill="none"
       stroke-width="0.3985"
       stroke-linecap="butt"
       stroke-linejoin="miter"
       stroke="#000000"
       stroke-opacity="1"
       stroke-miterlimit="10"
       d="M -56.693906,3.4375e-4 H -84.643125"
       transform="matrix(1,0,0,-1,230.69,82.848)"
       id="path17" />
  </g>
  <g
     clip-path="url(#clip-2)"
     id="g23">
    <path
       fill="none"
       stroke-width="0.3985"
       stroke-linecap="round"
       stroke-linejoin="round"
       stroke="#000000"
       stroke-opacity="1"
       stroke-miterlimit="10"
       d="M -2.073045,2.390281 C -1.694139,0.956688 -0.850389,0.277 0.00117375,-3.4375e-4 -0.850389,-0.277687 -1.694139,-0.957375 -2.073045,-2.390969"
       transform="matrix(-1,0,0,1,145.84883,82.848)"
       id="path21" />
  </g>
</svg>
